svg/pictographs/pictograph_Product-Categories_Oxygen.svg

<?xml version='1.0' encoding='utf-8'?>
<svg xmlns="http://www.w3.org/2000/svg" id="Layer_1" data-name="Layer 1" width="110" height="110" viewBox="0 0 110 110">
  <path d="M55,26.2391v5.6739M50.2941,19.6196v4.4962M59.7059,19.6196v4.4962M43.7059,32.3859c-1.5686,1.1032-4.7059,4.8228-4.7059,10.875v49.1739c0,2.5217.9412,7.5652,7.0588,7.5652h17.8824c6.1176,0,7.0588-5.0435,7.0588-7.5652v-49.1739c0-6.0522-3.1373-9.7718-4.7059-10.875M62.5294,30.0217c0,4.1782-3.371,7.5653-7.5294,7.5653s-7.5294-3.3871-7.5294-7.5653,3.371-7.5652,7.5294-7.5652,7.5294,3.3871,7.5294,7.5652ZM48.4118,19.6196h13.1764c1.0396,0,1.8824-.8468,1.8824-1.8913v-2.837c0-1.0445-.8428-1.8913-1.8824-1.8913h-13.1764c-1.0396,0-1.8824.8468-1.8824,1.8913v2.837c0,1.0445.8428,1.8913,1.8824,1.8913ZM58.1262,71.6287c0,1.5533-.2856,2.8957-.8568,4.0271-.5711,1.1314-1.3546,2.004-2.3505,2.6176-.9959.6137-2.1333.9205-3.4123.9205s-2.4164-.3068-3.4123-.9205c-.9959-.6136-1.7794-1.4862-2.3505-2.6176-.5712-1.1314-.8568-2.4738-.8568-4.0271s.2856-2.8957.8568-4.0271c.5711-1.1314,1.3546-2.004,2.3505-2.6176.9959-.6137,2.1333-.9205,3.4123-.9205s2.4164.3068,3.4123.9205c.9959.6136,1.7794,1.4862,2.3505,2.6176.5712,1.1314.8568,2.4738.8568,4.0271ZM65.113,83.3175h-4.4348s2.1801-2.7391,3.0559-3.8199.8944-2.087.8944-2.087c0,0,.2981-1.5093-1.2298-2.1615s-2.9814.6894-2.9814.6894" style="fill:none;stroke:currentColor;stroke-linecap:round;stroke-linejoin:round;stroke-width:1.5" />
</svg>

<?xml version='1.0' encoding='utf-8'?>
<svg xmlns="http://www.w3.org/2000/svg" width="110" height="110" viewBox="0 0 110 110" fill="none" stroke="currentColor" stroke-width="1.5">
<path d="M55 26.2391V31.913M50.2941 19.6196V24.1158M59.7059 19.6196V24.1158M43.7059 32.3859C42.1373 33.4891 39 37.2087 39 43.2609V92.4348C39 94.9565 39.9412 100 46.0588 100H55.4706H63.9412C70.0588 100 71 94.9565 71 92.4348V43.2609C71 37.2087 67.8627 33.4891 66.2941 32.3859M62.5294 30.0217C62.5294 34.1999 59.1584 37.587 55 37.587C50.8416 37.587 47.4706 34.1999 47.4706 30.0217C47.4706 25.8436 50.8416 22.4565 55 22.4565C59.1584 22.4565 62.5294 25.8436 62.5294 30.0217ZM48.4118 19.6196H61.5882C62.6278 19.6196 63.4706 18.7728 63.4706 17.7283V14.8913C63.4706 13.8468 62.6278 13 61.5882 13H48.4118C47.3722 13 46.5294 13.8468 46.5294 14.8913V17.7283C46.5294 18.7728 47.3722 19.6196 48.4118 19.6196Z" stroke="currentColor" stroke-width="1.5" stroke-linecap="round" stroke-linejoin="round" fill="none" />
<path d="M60.2382 71.6304C60.2382 73.1837 59.9526 74.5261 59.3814 75.6575C58.8103 76.7889 58.0268 77.6615 57.0309 78.2751C56.035 78.8888 54.8976 79.1956 53.6186 79.1956C52.3396 79.1956 51.2022 78.8888 50.2063 78.2751C49.2104 77.6615 48.4269 76.7889 47.8558 75.6575C47.2846 74.5261 46.999 73.1837 46.999 71.6304C46.999 70.0771 47.2846 68.7347 47.8558 67.6033C48.4269 66.4719 49.2104 65.5993 50.2063 64.9857C51.2022 64.372 52.3396 64.0652 53.6186 64.0652C54.8976 64.0652 56.035 64.372 57.0309 64.9857C58.0268 65.5993 58.8103 66.4719 59.3814 67.6033C59.9526 68.7347 60.2382 70.0771 60.2382 71.6304ZM58.4807 71.6304C58.4807 70.3552 58.2635 69.2789 57.829 68.4015C57.3995 67.5242 56.8161 66.8602 56.079 66.4095C55.3467 65.9589 54.5266 65.7336 53.6186 65.7336C52.7106 65.7336 51.888 65.9589 51.1509 66.4095C50.4186 66.8602 49.8353 67.5242 49.4008 68.4015C48.9712 69.2789 48.7564 70.3552 48.7564 71.6304C48.7564 72.9057 48.9712 73.9819 49.4008 74.8593C49.8353 75.7366 50.4186 76.4006 51.1509 76.8513C51.888 77.3019 52.7106 77.5272 53.6186 77.5272C54.5266 77.5272 55.3467 77.3019 56.079 76.8513C56.8161 76.4006 57.3995 75.7366 57.829 74.8593C58.2635 73.9819 58.4807 72.9057 58.4807 71.6304Z" fill="none" stroke="currentColor" stroke-width="1.5" />
<path d="M62.1121 76.259C62.4766 76.2591 62.8042 76.3302 63.0916 76.4768L63.2937 76.5959C63.4857 76.7249 63.6439 76.8834 63.7673 77.0715C63.9325 77.3233 64.0154 77.6045 64.0154 77.9114C64.0153 78.13 63.9718 78.3432 63.8875 78.551L63.8884 78.552C63.8053 78.7596 63.6615 78.9867 63.4626 79.2317L63.4617 79.2307C63.3636 79.3518 63.2483 79.4871 63.113 79.634L62.6511 80.1135L61.4314 81.3313H64.1208V82.1321H60.1384V81.5002L60.1667 81.4709L62.1453 79.4485H62.1462L62.4617 79.1184C62.5565 79.0163 62.6404 78.9215 62.7146 78.8352L62.8171 78.7092C62.9117 78.5853 62.9834 78.4689 63.0339 78.3606L63.0789 78.2512C63.1169 78.1415 63.1364 78.0284 63.1365 77.9114C63.1365 77.7773 63.1104 77.6592 63.0603 77.5559L63.0017 77.4573C62.9355 77.3616 62.8501 77.2813 62.7449 77.217L62.6326 77.1575C62.4736 77.0858 62.2928 77.0491 62.0886 77.0491C61.9256 77.0491 61.7806 77.0725 61.6531 77.1184L61.531 77.1721C61.3774 77.2513 61.2602 77.3615 61.1765 77.5032C61.0953 77.6438 61.0525 77.8111 61.0525 78.009V78.1096H60.1619V78.009C60.1619 77.664 60.247 77.3567 60.4207 77.0911L60.488 76.9954C60.6524 76.7775 60.8643 76.6046 61.1218 76.4768L61.2351 76.425C61.5017 76.3136 61.7947 76.259 62.1121 76.259Z" fill="none" stroke="currentColor" stroke-width="1.5" />
</svg>
